X: 150103
T: VALSE DE STRAUSS
%R: waltz
B: James Kerr "Merry Melodies" v.1 p.50 s.1 #3
Z: 2016 John Chambers <jc:trillian.mit.edu>
N: The use of segno symbols doesn't make sense here.
M: 3/4
L: 1/8
K: G
!segno!ug2 |:\
f2z2e2 | d2z2^c2 | e2z2d2 | .B.B.B.B.B.B |\
c2z2D2 | .A.A.A.A.A.A |[1 B6 | B2d2g2 :|[2 G2D2B2 | G4 H:|\
uf2 |\
g2z2a2 | b2z2g2 | f2z2g2 | a6 |
e2z2f2 | g6 | d2z2e2 | f6 |\
g2z2a2 | ^c'3bag | f2z2g2 | b3agf |\
e2z2f2 | a3gfe | d2d^cde | "^D.C. to"d4 !segno!|]

%%sep 1 1 500
%%sep 1 1 500

